X:26
T:Dorsetshire March,The.2voices. WCF.026
M:4/4
L:1/8
Q:1/2=80
C:”..For two Flutes”
S:Wm Clarke MS, Feltwell, 1858
O:England
A:Norfolk
N:Bar lines missing around bar 3. Note values eccentric
Z:Transcription Lyn Law 04/2006
K:D
V:1
|:D2|F2D>F A2F>A|d2A>d f2df|\
a2b>a g2″^tr”f>e/f/4|e2e>e e2D2|!
V:2
|:z2|z2D2F2D>F|A2F>A d2Ad|f2g>f e2d>c/d/4|c2c>c c2 z2|!
V:1
F2D>F A2F>A|B2g>e c2BA|B>c d>g f2″^tr”e>d|d2d>d d2:|!
V:2
z2 D2F2D>F|G2B2E2F2|G>EF>G A2G>F|F2F>F F2:|!
V:1
|:A2|”^primo”d2f>d B2d>B|A>Fd>B AFED|FAdc BAGF|E2E>E E2D>E|!
V:2
|:F2|F2D2G2B>G|F2G2FDEF|DFBA G>FE>d|{d}c2c>c c2z2|!
V:1
F2D>F A2F>A|B>cd>e {d}c2{B}A2|Bbag f2″^tr”e>d/e/4|d2d>d d2:|
V:2
z2D2F2D>F|G2B>G F2G2|Ggfe d2″^tr”d>B/c/4|d2F>F F2:|

